images/MIG-21.svg

<?xml version="1.0" encoding="UTF-8" standalone="no"?>
<svg
   version="1.1"
   width="627.09998"
   height="1000"
   style="clip-rule:evenodd;fill-rule:evenodd;image-rendering:optimizeQuality;shape-rendering:geometricPrecision;text-rendering:geometricPrecision"
   id="svg974"
   sodipodi:docname="MIG-21.svg"
   inkscape:version="1.4 (e7c3feb1, 2024-10-09)"
   xmlns:inkscape="http://www.inkscape.org/namespaces/inkscape"
   xmlns:sodipodi="http://sodipodi.sourceforge.net/DTD/sodipodi-0.dtd"
   xmlns="http://www.w3.org/2000/svg"
   xmlns:svg="http://www.w3.org/2000/svg">
  <defs
     id="defs974" />
  <sodipodi:namedview
     id="namedview974"
     pagecolor="#ffffff"
     bordercolor="#000000"
     borderopacity="0.25"
     inkscape:showpageshadow="2"
     inkscape:pageopacity="0.0"
     inkscape:pagecheckerboard="0"
     inkscape:deskcolor="#d1d1d1"
     inkscape:zoom="1.8263361"
     inkscape:cx="319.49212"
     inkscape:cy="211.07834"
     inkscape:window-width="1840"
     inkscape:window-height="1192"
     inkscape:window-x="147"
     inkscape:window-y="77"
     inkscape:window-maximized="0"
     inkscape:current-layer="svg974" />
  <g
     id="g448"
     transform="rotate(90,407.06019,407.56019)">
    <path
       style="opacity:1"
       fill="#fdfdfd"
       d="m 665.5,262.5 c 9.667,0 19.333,0 29,0 0,7.667 0,15.333 0,23 -6.333,0 -12.667,0 -19,0 -5.262,0.315 -10.262,-0.185 -15,-1.5 0.667,0.667 1.333,1.333 2,2 3.986,0.499 7.986,0.666 12,0.5 -0.493,2.306 -0.826,4.639 -1,7 -2.428,7.391 -4.094,15.058 -5,23 -3.248,8.993 -5.582,18.327 -7,28 -0.838,0.342 -1.172,1.008 -1,2 -1.157,4.964 -2.157,9.964 -3,15 -0.904,0.709 -1.237,1.709 -1,3 -24.839,0.331 -49.506,-0.002 -74,-1 -2.403,1.335 -3.736,3.002 -4,5 0.808,-0.308 1.475,-0.808 2,-1.5 18.33,-0.5 36.664,-0.667 55,-0.5 -0.237,1.291 0.096,2.291 1,3 3.125,0.979 6.458,1.313 10,1 0.167,27.669 0,55.335 -0.5,83 -3.937,-2.476 -8.27,-3.476 -13,-3 -2.833,0.167 -5.667,0.333 -8.5,0.5 -0.556,0.383 -0.889,0.883 -1,1.5 -10.282,0.952 -20.615,1.286 -31,1 -7.519,0.325 -14.852,-0.008 -22,-1 -0.167,-25.669 0,-51.335 0.5,-77 1.167,-1.167 2.333,-2.333 3.5,-3.5 -3.276,1.237 -6.109,3.403 -8.5,6.5 -0.383,-0.556 -0.883,-0.889 -1.5,-1 -25.667,24.667 -51.333,49.333 -77,74 -13.669,0.507 -27.335,1.507 -41,3 -1.599,-0.268 -2.932,0.066 -4,1 -6,0 -12,0 -18,0 -0.333,-4 -0.667,-4 -1,0 -13.337,0.167 -26.671,0 -40,-0.5 2.247,-1.277 4.247,-2.777 6,-4.5 1.527,0.073 2.527,-0.594 3,-2 1.527,0.073 2.527,-0.594 3,-2 6.497,-3.414 12.83,-7.081 19,-11 2.333,-2 4.667,-4 7,-6 1.527,0.073 2.527,-0.594 3,-2 8.187,-4.256 15.854,-9.256 23,-15 1.527,0.073 2.527,-0.594 3,-2 1.527,0.073 2.527,-0.594 3,-2 7.211,-3.554 13.878,-7.887 20,-13 1.527,0.073 2.527,-0.594 3,-2 1.527,0.073 2.527,-0.594 3,-2 1.527,0.073 2.527,-0.594 3,-2 7.211,-3.554 13.878,-7.887 20,-13 1.527,0.073 2.527,-0.594 3,-2 1.527,0.073 2.527,-0.594 3,-2 1.527,0.073 2.527,-0.594 3,-2 3.221,-1.209 6.221,-2.876 9,-5 0.886,0.825 1.219,1.825 1,3 3.297,0.171 3.631,-0.495 1,-2 0.525,-0.692 1.192,-1.192 2,-1.5 -0.333,-0.333 -0.667,-0.667 -1,-1 2.855,-2.031 5.522,-4.197 8,-6.5 1.527,0.073 2.527,-0.594 3,-2 1.527,0.073 2.527,-0.594 3,-2 1.347,-0.671 2.514,-0.671 3.5,0 3.264,-3.053 6.43,-6.219 9.5,-9.5 6.241,-3.943 12.241,-8.109 18,-12.5 1.527,0.073 2.527,-0.594 3,-2 1.527,0.073 2.527,-0.594 3,-2 5.678,-2.836 11.011,-6.169 16,-10 0.992,-0.172 1.658,0.162 2,1 0.203,1.544 0.87,2.878 2,4 4.167,0.848 7.667,-0.485 10.5,-4 0.585,-1.498 0.085,-2.498 -1.5,-3 0.384,-3.772 2.05,-6.772 5,-9 10.672,-0.167 21.339,0 32,0.5 -4.333,4.333 -8.667,8.667 -13,13 5.658,-3.477 10.658,-7.977 15,-13.5 8.585,0.317 17.085,-0.017 25.5,-1 0.617,-0.949 0.451,-1.782 -0.5,-2.5 -6.667,-0.333 -13.333,-0.667 -20,-1 1.898,-3.362 1.232,-3.362 -2,0 -10.328,0.5 -20.661,0.666 -31,0.5 4,-3 8,-6 12,-9 1.527,0.073 2.527,-0.594 3,-2 8,-4.667 16,-9.333 24,-14 -1.214,-1.649 -2.547,-3.315 -4,-5 2.071,-1.685 4.071,-3.352 6,-5 3.333,-1.667 6.667,-3.333 10,-5 z"
       id="path448" />
  </g>
  <g
     id="g848"
     transform="rotate(90,407.06019,407.56019)">
    <path
       style="opacity:1"
       fill="#fcfcfc"
       d="m 877.5,525.5 c 7.008,-0.166 14.008,0 21,0.5 0.457,0.414 0.791,0.914 1,1.5 -1.545,0.952 -3.212,1.285 -5,1 -4.641,0.627 -9.307,0.96 -14,1 -2.559,-0.302 -4.893,0.032 -7,1 -6.68,0.112 -13.347,0.446 -20,1 -4.649,0.565 -9.316,1.065 -14,1.5 4.752,0.773 9.419,0.607 14,-0.5 3.018,-0.165 6.018,0.002 9,0.5 7.255,7.76 14.922,14.927 23,21.5 17.389,17.891 35.056,35.724 53,53.5 0.594,0.464 1.261,0.631 2,0.5 0.011,1.517 0.677,2.684 2,3.5 -13.175,0.432 -26.175,0.599 -39,0.5 -0.667,0 -1.333,0 -2,0 -1.929,-1.648 -3.929,-3.315 -6,-5 0.525,-0.692 1.192,-1.192 2,-1.5 -0.916,-0.374 -1.75,-0.874 -2.5,-1.5 -0.308,0.808 -0.808,1.475 -1.5,2 -2.411,-0.861 -4.411,-2.194 -6,-4 1.43,-0.079 2.764,0.254 4,1 1.196,-0.346 1.196,-0.846 0,-1.5 -18.667,-11.667 -37.333,-23.333 -56,-35 0.441,-2.453 -0.059,-4.953 -1.5,-7.5 -0.595,1.399 -0.428,2.732 0.5,4 -0.308,0.808 -0.808,1.475 -1.5,2 -13.579,-9.208 -27.412,-18.041 -41.5,-26.5 -1.098,-0.77 -1.098,-1.603 0,-2.5 3.682,-0.165 7.348,10e-4 11,0.5 -4.546,0.81 -4.88,2.143 -1,4 8.297,1.203 16.63,2.203 25,3 1.374,3.41 2.041,3.243 2,-0.5 9.013,-0.215 18.013,-0.715 27,-1.5 2.51,-0.376 4.843,-1.21 7,-2.5 -0.209,-0.586 -0.543,-1.086 -1,-1.5 -2.971,-0.794 -5.971,-1.461 -9,-2 -9.333,-0.333 -18.667,-0.667 -28,-1 3.667,-0.333 7.333,-0.667 11,-1 -5.796,-1.379 -10.796,-0.213 -15,3.5 -0.892,-2.214 -2.558,-3.214 -5,-3 -12.331,0.738 -24.664,1.405 -37,2 -1.473,-0.572 -2.807,-1.405 -4,-2.5 11.662,-0.666 23.329,-1.166 35,-1.5 2.885,0.306 5.552,-0.027 8,-1 6.674,-0.213 13.341,-0.546 20,-1 1.915,0.284 3.581,-0.049 5,-1 7.69,-0.42 15.356,-1.086 23,-2 4.082,-0.392 8.082,-1.058 12,-2 z"
       id="path848" />
  </g>
  <path
     style="fill:none;stroke:#00e58b;stroke-width:2.9;stroke-linecap:round;stroke-linejoin:round;stroke-dashoffset:17.9906;paint-order:markers stroke fill"
     d="m 317.5,10.647239 2.49792,32.522474 16.45482,60.398877 5.614,0.58076 3.48455,0.77435 2.32303,8.71137 1.16152,11.228 2.51662,40.45951 1.3551,24.58544 0.96794,48.00937 1.74227,64.46419 3.48455,61.75398 85.56508,133.18728 0.58076,-0.19359 0.38717,0.77435 2.71021,-12.5831 3.09738,21.68165 102.79425,158.35347 0.77434,27.29565 -1.16151,5.80758 -0.77435,11.80876 -1.74227,-11.228 -190.68237,0.38718 -2.51662,1.16151 h -2.12945 l 0.38718,70.85254 79.56391,130.47707 0.77434,-23.03676 2.71021,-4.83965 2.12944,4.83965 -0.58075,82.85488 -0.77435,3.48455 -3.09738,1.93586 -3.09738,-0.38717 -82.4677,-59.04378 -1.74227,-6.9691 -3.87173,-1.93586 v -0.96793 l -23.81109,-0.58076 v 0 41.42744 l 0.58075,2.7102 0.38718,4.45248 -0.19359,8.51779 0.96793,13.16386 -1.93586,5.614 -0.19359,7.93703 -1.16151,6.38835 -3.07868,6.77551"
     id="path1"
     sodipodi:nodetypes="ccccccccccccccccccccccccccccccccccccccccccccccccc" />
</svg>

<?xml version="1.0" encoding="UTF-8" standalone="no"?>
<svg
   version="1.1"
   width="627.09998"
   height="1000"
   style="clip-rule:evenodd;fill-rule:evenodd;image-rendering:optimizeQuality;shape-rendering:geometricPrecision;text-rendering:geometricPrecision"
   id="svg974"
   sodipodi:docname="MIG-21.svg"
   inkscape:version="1.4 (e7c3feb1, 2024-10-09)"
   xmlns:inkscape="http://www.inkscape.org/namespaces/inkscape"
   xmlns:sodipodi="http://sodipodi.sourceforge.net/DTD/sodipodi-0.dtd"
   xmlns="http://www.w3.org/2000/svg"
   xmlns:svg="http://www.w3.org/2000/svg">
  <sodipodi:namedview
     id="namedview974"
     pagecolor="#ffffff"
     bordercolor="#000000"
     borderopacity="0.25"
     inkscape:showpageshadow="2"
     inkscape:pageopacity="0.0"
     inkscape:pagecheckerboard="0"
     inkscape:deskcolor="#d1d1d1"
     inkscape:zoom="1.8263361"
     inkscape:cx="366.58093"
     inkscape:cy="854.99048"
     inkscape:window-width="1840"
     inkscape:window-height="1192"
     inkscape:window-x="152"
     inkscape:window-y="58"
     inkscape:window-maximized="0"
     inkscape:current-layer="svg974" />
  <defs
     id="defs974" />
  <g
     id="g448"
     transform="rotate(90,407.06019,407.56019)" />
  <g
     id="g848"
     transform="rotate(90,407.06019,407.56019)" />
  <path
     style="fill:none;stroke:#00e58b;stroke-width:2.9;stroke-linecap:round;stroke-linejoin:round;stroke-dashoffset:17.9906;paint-order:markers stroke fill"
     d="M 317.5 10.6472 L 319.998 43.1697 L 336.453 103.569 L 342.067 104.149 L 345.551 104.924 L 347.874 113.635 L 349.036 124.863 L 351.552 165.323 L 352.908 189.908 L 353.875 237.917 L 355.618 302.382 L 359.102 364.136 L 444.667 497.323 L 445.248 497.129 L 445.635 497.904 L 448.346 485.321 L 451.443 507.002 L 554.237 665.356 L 555.012 692.651 L 553.85 698.459 L 553.076 710.268 L 551.333 699.04 L 360.651 699.427 L 358.134 700.588 L 356.005 700.588 L 356.392 771.441 L 435.956 901.918 L 436.73 878.881 L 439.441 874.042 L 441.57 878.881 L 440.989 961.736 L 440.215 965.221 L 437.118 967.156 L 434.02 966.769 L 351.552 907.725 L 349.81 900.756 L 345.938 898.821 L 345.938 897.853 L 322.127 897.272 L 322.127 897.272 L 322.127 938.699 L 322.708 941.409 L 323.095 945.862 L 322.902 954.38 L 323.87 967.544 L 321.934 973.158 L 321.74 981.095 L 320.579 987.483 L 317.5 994.259"
     id="path1"
     sodipodi:nodetypes="ccccccccccccccccccccccccccccccccccccccccccccccccc" />
</svg>
